packages/core/src/svgs/tokens/branded/WSI.svg

<svg width="24" height="24" viewBox="0 0 24 24" fill="none" xmlns="http://www.w3.org/2000/svg">
<path d="M10.3334 2H8.66675V9.77773L10.3334 5.34445V2ZM6.9612 5.88889H3.66675L7.44452 18.1111H10.239L11.9778 12.4112L13.7612 18.1111H16.5556L20.3334 5.88889H17.1056L15.139 11.9778L13.239 5.88889H10.7611L8.79452 11.9778L6.9612 5.88889ZM15.3334 2H13.6668V5.34445L15.3334 9.77773V2ZM8.66675 18.6667H10.3334V22H8.66675V18.6667ZM15.3334 18.6667H13.6668V22H15.3334V18.6667Z" fill="#013662"/>
</svg>

<svg xmlns="http://www.w3.org/2000/svg" width="24" height="24" fill="none" viewBox="0 0 24 24">
    <path fill="#013662" d="M10.333 2H8.667v7.778l1.666-4.434zM6.961 5.889H3.667L7.445 18.11h2.794l1.739-5.7 1.783 5.7h2.795l3.777-12.22h-3.227l-1.967 6.089-1.9-6.09h-2.478l-1.966 6.09zM15.333 2h-1.666v3.344l1.666 4.434zM8.667 18.667h1.666V22H8.667zm6.666 0h-1.666V22h1.666z"/>
</svg>
